X: 10561
M: C|
L: 1/8
K: G
(ud>c) |\
(B>d)g>f g2d>c | (B>d)g>f g2e^c | (d>f)a>g (f>e)d>^c | (d>f)a>g
(f>e)d>c | (B>d)g>f g2d>c | (B>d)g>f g2g>f | (e>f)g>e (f>g)a>f | g2b2 g2 :|
|: (ug>a) |\
(b>^a)b>g (=a>^g)a>f | (=g>a)g>e (d>e)d>B | (c>d)e>c (B>c)d>B | A>^GA>B


